X:1
T:Good Night
T:Good Night
T:Copyright © CPDL
T:Copyright © CPDL
T:Copyright © CPDL
T:Copyright © CPDL
T:Copyright © CPDL
Z:Copyright © CPDL
%%score 1 { 2 ( 3 4 ) }
L:1/8
Q:1/4=80
M:4/4
K:Bb
V:1 treble nm="P1"
V:2 treble nm="P2"
V:3 bass nm="P3"
V:4 bass 
V:1
"^Editor: John Henry Fowler""^(  Revision:   8 - 6 - 2008  )""^Andante, non troppo lento." z4"^From \"English Lyrics\" -  Set 1 -  Number 2""^Words from poet Percy Bysshe Shelly""^Dedicated to Mrs. Arthur Lyell." z2"^Charles Hubert Hastings Parry"!p!"^( 1848 - 1918 )" F2 | %1
w: Good|
 c4!mf! z!<(! c!<)! f2- | fc _A>G !>!G3 F | FE B2- B!<(!A B>!<)!c | d4 z4 | %5
w: night~! Ah no|_ the hour is ill That|sev- ers those _ it should u-|nite;|
"^più  tranquillo" z ^F!<(!Ad!<)! e3 =B |!>(! d>c!>)! G2 z4 | G3 c B A2 c | f6 z2 |!p! z8 | %10
w: Let us re- main to-|ge- ther still,|Then it will be good|night.||
 G2 AG d3 B | A2!<(! A2!<)! !>!=e4 | z!<(! GB!<)!f =e>!>(!G c!>)!B | A6 z2 | z"^cresc." FGF A4 | %15
w: How can I call the|lone night good|Though thy sweet wish- es wing its|flight~?|Be it not said,|
 =B2!<(! c>!<)!B =e4- | ed!>(!AF A2!>)! G2 | c4 z4 | z4 z2!mf!"^sostenuto" G2 | c4- cAGF | %20
w: thought, un- der- stood|_ that it will be good-|\-~night.|To|hearts _ which near each|
"^cresc."!<(! c>B!<)! f4 F2 | B"^cresc."B e2- e!<(!dA!<)!B | g6 z2 |!p! z!<(! ^FAd!<)! e3 =B | %24
w: o- ther move From|eve- nings close _ to morn- ings|light,|The night is good; be-|
!>(! d3!>)! c"^dim."!>)!!>(! G4- | GG"^rit."AB c3!p! F | f8 | z8 | z8 |] %29
w: cause, my love,|_ They ne- ver say good-|night.|||
V:2
 x/ x/ x/ x/ F/d/c/ z/ x/ x/ x/ x/ c/g/f/ z/ | x/ x/ x/ x/ F/d/c/ z/ x/ x/ x/ x/ c/g/f/ z/ | %2
 x/ x/ x/ x/ c/g/f/ z/ x/ x/ x/ x/ F/c/B/ z/ | x/ x/ x/ x/ B/f/e/ z/ x/ x/ x/ x/ G/d/c/ z/ | %4
 x/ x/ x/ x/ A/e/d/ z/ x/ x/ x/ x/ d/a/g/ z/ | x/ x/ x/ x/ A/e/d/ z/ x/ x/ x/ x/ =B/e/d/ z/ | %6
 x/ x/ x/ x/ G/d/c/ z/ x/ x/ x/ x/ A/_a/g/ z/ | x/ x/ x/ x/ G/d/c/ z/ x/ x/ x/ x/ A/d/c/ z/ | %8
 x/ x/ x/ x/ A/d/c/ z/ x/ x/ x/ x/ B/g/f/B/ | %9
 (!arpeggio!!>![=eb]/!>(!!>(!agf!>)!!>)!e/)!>(!!>(! (!arpeggio!!>![eb]/agf!>)!!>)!e/) | %10
!>(! (!>![=eb]/!>(!agf!>)!!>)!e/)!>(! (!>![eb]/!>(!agf!>)!!>)!e/) | %11
!>(! (!>![=eb]/!>(!gfe!>)!!>)!a/)!>(!!>(! !>![ea]/gfe!>)!!>)!a/ | %12
!>(! !>![db]/!>(!agf!>)!!>)!b/!>(! !>![=eb]/!>(!agf!>)!!>)!e/ | (!>![=eb]/gfea/) (!>![ea]/gfea/) | %14
 (!>![da]/!>(!gf=e!>)!b/) (!>![ea]/!>(!gfe!>)!a/) | %15
 (!>![fa]/gf!<(!=e/^c/d/)!<)!!>(! (!>![ea=e']/d'c'=b/!>)!^g/a/) | %16
 !>![fc']/!>(!=bagf/ (f/=e/^c/d/) (!>!f/e/A/!>)!=B/) | %17
 x/ x/ x/ x/ G/d/c/ z/ x/ x/ x/ x/ G/d/c/ z/ | x/ x/ x/ x/ G/d/c/ z/ x/ x/ x/ x/ B/d/c/ z/ | %19
 x/ x/ x/ x/ F/d/c/ z/ x/ x/ x/ x/ c/g/f/ z/ | x/ x/ x/ x/ c/g/f/ z/ x/ x/ x/ x/ F/c/B/ z/ | %21
 x/ x/ x/ x/ B/f/e/ z/ x/ x/ x/ x/ B/e/d/ z/ | x/ x/ x/ x/ c/a/g/ z/ x/ x/ x/ x/ A/d/c/ z/ | %23
 x/ x/ x/ x/ A/e/d/ z/ x/ x/ x/ x/ =B/e/d/ z/ | x/ x/ x/ x/ G/d/c/ z/ x/ x/ x/ x/ A/_a/g/ z/ | %25
 x/ x/ x/ x/ G/d/c/ z/ x/ x/ x/ x/ A/d/c/ z/ | x/ x/ x/ x/ A/d/c/ z/ x/ x/ x/ x/ _c/g/f/ z/ | %27
 x/ x/ x/ x/ e/c'/b/ z/ x/ x/ x/ x/ b/f'/e'/ z/ | x/ x/ x/ x/ B/(f/b/)(f'/ b'2) z2 |] %29
V:3
!p! (E,/F,/A,/C/ x/ x/ x/) x/ (C,/F,/A,/E/ x/ x/ x/) x/ | %1
!p! (E,/F,/A,/C/ x/ x/ x/) x/ (C,/F,/A,/E/ x/ x/ x/) x/ | %2
 (B,,/_A,/E/F/ x/ x/ x/) x/ (A,/D/F/D/ x/ x/ x/) x/ | %3
 (G,/B,/E/G/ x/ x/ x/) x/ (E,/A,/C/E/ x/ x/ x/) x/ | %4
!<(! (D,/A,/D/^F/!<)! x/ x/ x/) x/!>(! (B,,/G,/D/G/!>)! x/ x/ x/) x/ | %5
 (D,/A,/D/^F/ x/ x/ x/) x/ (G,,/D,/=B,/=F/ x/ x/ x/) x/ | %6
 (E,/G,/C/E/ x/ x/ x/) x/ (C,/G,/E/G/ x/ x/ x/) x/ | %7
 (E,/G,/C/E/ x/ x/ x/) x/ (F,,/C,/A,/E/ x/ x/ x/) x/ | %8
 (B,,/F,/C/E/ x/ x/ x/) x/ (B,,/F,/D/F/ x/ x/ x/) x/ |!p! [Bd]3 [Bd] [Bd]3 [Bd] | %10
 [Bd]3 [Bd] [Bd]3 [Bd] | [A^c]3 [Ac] [Ac]3 [Ac] | B3 [Bd] [Bc]3 [Bc] | [Ac]3 [Ac] [Ac]3 [Ac] | %14
"^cresc." [A=B]3 [AB] [Ac]3 [Ac] |"^cresc." [Ad]3 [FA] [=EA]3 [Ec] | [FAc]3 [FAc] [CF]2 [=B,F]2 | %17
"^poco cresc."!<(! (C/=E/G/!<)!E/ x/ x/ x/) x/ (_B,/C/G/E/ x/ x/ x/) x/ | %18
 (A,/B,/C/=E/ x/ x/ x/) x/ (F,/B,/C/G/ x/ x/ x/) x/ | %19
!mf! (E,/F,/A,/C/ x/ x/ x/) x/ (C,/F,/A,/E/ x/ x/ x/) x/ | %20
 (B,,/_A,/E/F/ x/ x/ x/) x/ (A,/D/F/D/ x/ x/ x/) x/ | %21
 (G,/B,/E/G/ x/ x/ x/) x/ (F,/B,/D/F/ x/ x/ x/) x/ | %22
 (=E,/B,/C/G/ x/ x/ x/) x/ (_E,/_A,/C/G/ x/ x/ x/) x/ | %23
!p! (D,/A,/D/^F/ x/ x/ x/) x/ (G,,/D,/=B,/F/ x/ x/ x/) x/ | %24
 (E,/G,/C/E/ x/ x/ x/) x/ (C,/G,/E/G/ x/ x/ x/) x/ | %25
 (E,/G,/C/E/ x/ x/ x/) x/ (F,,/C,/A,/E/ x/ x/ x/) x/ | %26
 (B,,/F,/C/E/ x/ x/ x/) x/ (B,,/_A,/D/F/ x/ x/ x/) x/ | %27
 (B,,/G,/E/B/ x/ x/ x/) x/ (B,,/_G,/C/e/ x/ x/ x/) x/ | B,,/(F,/D/)(F/ x/) x/ x/ x/ B,,,2 z2 |] %29
V:4
 (!>!E,2- E,>D,) (!>!C,2- C,>D,) | (!>!E,2- E,>D,) C,2- C,>D, | B,,2- B,,>B, _A,2- A,>B, | %3
 (G,2- G,>B,) E,2- E,>B, | D,2- D,>C, B,,2- B,,>C, | D,2- D,>D, G,,2- G,,>G, | %6
 E,2- E,>D, C,2- C,>D, | E,2- E,>C, F,,2- C,>F, | B,,2- B,,>F, B,,2 x3/2 x/ | G !>!G3- G !>!G3- | %10
 G !>!G3- G !>!G3- | G G3- G G3- | G G3- G G3 | z F3- F F3- | F !>!F3 z !>!=E3 | z D3 z C3 | %16
 z D3 z G,2 G, | C2- C>=B, _B,2- B,>A, | A,2- A,>G, F,2- F,>=E, | _E,2- E,>D, C,2- C,>F, | %20
 B,,2- B,,>B, _A,2- A,>B, | G,2- G,>B, F,2- F,>B, | =E,2- E,>B, _E,2- E,>_A, | %23
 D,2- D,>D, G,,2- G,,>G, | E,2- E,>D, C,2- C,>D, | E,2- E,>C, F,,2- F,,>F, | %26
 B,,2- B,,>F, B,,2- B,,>_A, | B,,2- B,,>G, B,,2- B,,>_G, | B,,2 x6 |] %29

